X: 1
T: Lothian Lads
C: George Meikle
B: George Meikle "Originally Mine" p.12
R: reel
Z: 2010 John Chambers <jc:trillian.mit.edu>
M: C|
L: 1/8
K: F
C2 |: "F"F2EF "Gm"G2FG | "A/F7"A2GA "Bb"B2AB | "F"c2c=B "Dm"cdcA | "Gm"B2G2 "C7"GBAG |
"F"F2EF "Gm"G2FG | "A/F7"A2GA "Bb"B2AB | "F"c2cB "C7"cdcB |1"F"A2F2 "C7"F2C2 :|2 "F"A2F2 "C7"F2AB ||
"F"c2=Bc "E/C7"d2c2 | "Dm"A2^GA "A/Dm"B2A2 | "Gm"G2^FG "B/G7"A2G2 | "C"E2^DE "E/C7"=D2C2 |
"F"c2=Bc "E/C7"d2c2 | "Dm"A2^GA "A/Dm"B2A2 | "Gm"G2^FG "E/C7"cBAG | "F"A2F2 "C7"FAB=B |
"F"c2=Bc "E/C7"dcBc | "Dm"A2^GA "A/Dm"BAGA | "Gm"G2^FG "B/G7"AGFG | "C"E2^DE "E/C7"=DEDC |
"F"c2=Bc "E/C7"dcBc | "Dm"A2^GA "A/Dm"BAGA | "Gm"G2^FG "E/C7"cBAG | "F"A2F2 "F"F4 |]
